resources/boxplot.svg

<svg viewBox="3.32033 -139.524 438.373 136.203" xmlns="http://www.w3.org/2000/svg"><defs><font horiz-adv-x="0" id="cmr7"><font-face ascent="750" descent="250" font-family="cmr7"/><glyph d="M515 303c0 87-43 138-150 138-89 0-138-53-160-91h-1v344L54 683v-36c67 0 75-7 75-56V79c0-43-10-43-75-43V0c2 0 72 4 114 4 37 0 106-3 115-4v36c-65 0-75 0-75 43v180c0 105 83 154 149 154 70 0 79-55 79-106V79c0-43-10-43-75-43V0c2 0 72 4 114 4 37 0 106-3 115-4v36c-65 0-75 0-75 43v224z" glyph-name="h" horiz-adv-x="630" unicode="h" vert-adv-y="630"/><glyph d="M201 395h156v36H201v184h-34c-1-90-42-189-138-192v-28h93V125c0-112 84-135 140-135 67 0 113 57 113 136v55h-34v-54c0-68-32-105-71-105-69 0-69 84-69 102v271z" glyph-name="t" horiz-adv-x="446" unicode="t" vert-adv-y="446"/></font><font horiz-adv-x="0" id="cmr10"><font-face ascent="750" descent="250" font-family="cmr10"/><glyph d="M460 320c0 80-5 160-40 234-46 96-128 112-170 112-60 0-133-26-174-119-32-69-37-147-37-227 0-75 4-165 45-241C127-2 200-22 249-22c54 0 130 21 174 116 32 69 37 147 37 226zM249 0c-39 0-98 25-116 121-11 60-11 152-11 211 0 64 0 130 8 184 19 119 94 128 119 128 33 0 99-18 118-117 10-56 10-132 10-195 0-75 0-143-11-207C351 30 294 0 249 0z" glyph-name="zero" horiz-adv-x="500" unicode="0" vert-adv-y="500"/><glyph d="M294 640c0 24 0 26-23 26-62-64-150-64-182-64v-31c20 0 79 0 131 26V79c0-36-3-48-93-48H95V0c35 3 122 3 162 3s127 0 162-3v31h-32c-90 0-93 11-93 48v561z" glyph-name="one" horiz-adv-x="500" unicode="1" vert-adv-y="500"/><glyph d="M127 77l106 103c156 138 216 192 216 292 0 114-90 194-212 194-113 0-187-92-187-181 0-56 50-56 53-56 17 0 52 12 52 53 0 26-18 52-53 52-8 0-10 0-13-1 23 65 77 102 135 102 91 0 134-81 134-163 0-80-50-159-105-221L61 37C50 26 50 24 50 0h371l28 174h-25c-5-30-12-74-22-89-7-8-73-8-95-8H127z" glyph-name="two" horiz-adv-x="500" unicode="2" vert-adv-y="500"/><glyph d="M449 201c0 119-82 219-190 219-48 0-91-16-127-51v195c20-6 53-13 85-13 123 0 193 91 193 104 0 6-3 11-10 11-1 0-3 0-8-3-20-9-69-29-136-29-40 0-86 7-133 28-8 3-10 3-12 3-10 0-10-8-10-24V345c0-18 0-26 14-26 7 0 9 3 13 9 11 16 48 70 129 70 52 0 77-46 85-64 16-37 18-76 18-126 0-35 0-95-24-137-24-39-61-65-107-65C156 6 99 59 82 118c3-1 6-2 17-2 33 0 50 25 50 49s-17 49-50 49c-14 0-49-7-49-53 0-86 69-183 181-183 116 0 218 96 218 223z" glyph-name="five" horiz-adv-x="500" unicode="5" vert-adv-y="500"/><glyph d="M476 609c9 12 9 14 9 35H242c-122 0-124 13-128 32H89L56 470h25c3 16 12 79 25 91 7 6 85 6 98 6h207c-11-16-90-125-112-158-90-135-123-274-123-376 0-10 0-55 46-55s46 45 46 55v51c0 55 3 110 11 164 4 23 18 109 62 171l135 190z" glyph-name="seven" horiz-adv-x="500" unicode="7" vert-adv-y="500"/><glyph d="M367 318v-32C367 52 263 6 205 6c-17 0-71 2-98 36 44 0 52 29 52 46 0 31-24 46-46 46-16 0-46-9-46-48 0-67 54-108 139-108 129 0 251 136 251 351 0 269-115 337-204 337-55 0-104-18-147-63-41-45-64-87-64-162 0-125 88-223 200-223 61 0 102 42 125 100zm-124-77c-16 0-62 0-93 63-18 37-18 87-18 136 0 54 0 101 21 138 27 50 65 63 100 63 46 0 79-34 96-79 12-32 16-95 16-141 0-83-34-180-122-180z" glyph-name="nine" horiz-adv-x="500" unicode="9" vert-adv-y="500"/><glyph d="M56 342C56 135 218-22 404-22c163 0 261 139 261 255 0 10 0 17-13 17-11 0-11-6-12-16C632 91 525 9 416 9c-61 0-257 34-257 332 0 299 195 333 256 333 109 0 198-91 218-237 2-14 2-17 16-17 16 0 16 3 16 24v237c0 17 0 24-11 24-4 0-8 0-16-12l-50-74c-37 36-88 86-184 86-187 0-348-159-348-363z" glyph-name="C" horiz-adv-x="722" unicode="C" vert-adv-y="722"/><glyph d="M241 661c-9 22-12 22-35 22H37v-31h24c77 0 79-11 79-47V105c0-27 0-74-103-74V0c35 1 84 3 117 3s82-2 117-3v31c-103 0-103 47-103 74v539h1L410 22c5-13 10-22 20-22 11 0 14 8 18 19l246 633h1V78c0-36-2-47-79-47h-24V0c37 3 105 3 144 3s106 0 143-3v31h-24c-77 0-79 11-79 47v527c0 36 2 47 79 47h24v31H710c-26 0-26-1-33-19L458 101 241 661z" glyph-name="M" horiz-adv-x="916" unicode="M" vert-adv-y="916"/><glyph d="M721 339c0 204-151 366-333 366-179 0-332-160-332-366C56 134 210-22 388-22c182 0 333 159 333 361zM389 4c-96 0-230 88-230 349 0 259 146 327 229 327 87 0 230-71 230-327C618 88 481 4 389 4z" glyph-name="O" horiz-adv-x="777" unicode="O" vert-adv-y="777"/><glyph d="M333 76c4-40 31-82 78-82 21 0 82 14 82 95v56h-25V89c0-58-25-64-36-64-33 0-37 45-37 50v200c0 42 0 81-36 118-39 39-89 55-137 55-82 0-151-47-151-113 0-30 20-47 46-47 28 0 46 20 46 46 0 12-5 45-51 46 27 35 76 46 108 46 49 0 106-39 106-128v-37c-51-3-121-6-184-36C67 191 42 139 42 95c0-81 97-106 160-106 66 0 112 40 131 87zm-7 164V140c0-95-72-129-117-129-49 0-90 35-90 85 0 55 42 138 207 144z" glyph-name="a" horiz-adv-x="500" unicode="a" vert-adv-y="500"/><glyph d="M380 55v-66L527 0v31c-70 0-78 7-78 56v607l-144-11v-31c70 0 78-7 78-56V380c-29 36-72 62-126 62-118 0-223-98-223-227C34 88 132-11 246-11c64 0 109 34 134 66zm0 268V118c0-18 0-20-11-37-30-48-75-70-118-70-45 0-81 26-105 64-26 41-29 98-29 139 0 37 2 97 31 142 21 31 59 64 113 64 35 0 77-15 108-60 11-17 11-19 11-37z" glyph-name="d" horiz-adv-x="555" unicode="d" vert-adv-y="555"/><glyph d="M112 252c6 149 90 174 124 174 103 0 113-135 113-174H112zm-1-21h279c22 0 25 0 25 21 0 99-54 196-179 196-116 0-208-103-208-228C28 86 133-11 248-11c122 0 167 111 167 130 0 10-8 12-13 12-9 0-11-6-13-14C354 14 264 14 254 14c-50 0-90 30-113 67-30 48-30 114-30 150z" glyph-name="e" horiz-adv-x="444" unicode="e" vert-adv-y="444"/><glyph d="M177 442L37 431v-31c65 0 74-6 74-55V76c0-45-11-45-78-45V0c32 1 86 3 110 3 35 0 70-2 104-3v31c-66 0-70 5-70 44v367zm4 174c0 32-25 53-53 53-31 0-53-27-53-53 0-27 22-53 53-53 28 0 53 21 53 53z" glyph-name="i" horiz-adv-x="277" unicode="i" vert-adv-y="277"/><glyph d="M177 694L33 683v-31c70 0 78-7 78-56V76c0-45-11-45-78-45V0c33 1 86 3 111 3s74-2 111-3v31c-67 0-78 0-78 45v618z" glyph-name="l" horiz-adv-x="277" unicode="l" vert-adv-y="277"/><glyph d="M110 344V76c0-45-11-45-78-45V0c35 1 86 3 113 3 26 0 78-2 112-3v31c-67 0-78 0-78 45v184c0 104 71 160 135 160 63 0 74-54 74-111V76c0-45-11-45-78-45V0c35 1 86 3 113 3 26 0 78-2 112-3v31c-52 0-77 0-78 30v191c0 86 0 117-31 153-14 17-47 37-105 37-73 0-120-43-148-105v105L32 431v-31c70 0 78-7 78-56z" glyph-name="n" horiz-adv-x="555" unicode="n" vert-adv-y="555"/><glyph d="M167 332v110L28 431v-31c70 0 78-7 78-56V76c0-45-11-45-78-45V0c39 1 86 3 114 3 40 0 87 0 127-3v31h-21c-74 0-76 11-76 47v154c0 99 42 188 118 188 7 0 9 0 11-1-3-1-23-13-23-39 0-28 21-43 43-43 18 0 43 12 43 44s-31 61-74 61c-73 0-109-67-123-110z" glyph-name="r" horiz-adv-x="391" unicode="r" vert-adv-y="391"/><glyph d="M173 400h143v31H173v184h-25c-1-82-31-189-129-193v-22h85V124C104 1 197-11 233-11c71 0 99 71 99 135v57h-25v-55c0-74-30-112-67-112-67 0-67 91-67 108v278z" glyph-name="t" horiz-adv-x="388" unicode="t" vert-adv-y="388"/><glyph d="M391 79v-90L535 0v31c-70 0-78 7-78 56v355l-147-11v-31c70 0 78-7 78-56V166c0-87-48-155-121-155-84 0-88 47-88 99v332L32 431v-31c78 0 78-3 78-92V158c0-78 0-169 152-169 56 0 100 28 129 90z" glyph-name="u" horiz-adv-x="555" unicode="u" vert-adv-y="555"/></font></defs><style>text.f0{font-family:cmr10;font-size:9.96264px}text.f1{font-family:cmr7;font-size:6.97385px}</style><g id="page1"><path d="M21.324-72.191a2.494 2.494 0 0 0-2.492-2.493c-1.375 0-2.492 1.118-2.492 2.493s1.117 2.492 2.492 2.492a2.494 2.494 0 0 0 2.492-2.492z"/><text class="f0" transform="translate(-15.511 -95.754)" x="18.832" y="12.849">O<tspan x="26.581">u</tspan> <tspan x="32.115">t</tspan> <tspan x="35.99">l</tspan> <tspan x="38.757">i</tspan> <tspan x="41.525">e</tspan> <tspan x="45.952">r</tspan></text><path d="M47.18-72.191h56.691M47.18-63.688v-17.007" fill="none" stroke="#000" stroke-miterlimit="10.037" stroke-width=".8"/><text class="f0" transform="translate(2.34 -64.359)" x="18.832" y="12.849">1<tspan x="23.813">0</tspan></text><text class="f1" transform="translate(2.34 -64.359)" x="28.794" y="9.233">t<tspan x="31.908">h</tspan></text><text class="f0" transform="translate(2.34 -64.359)" x="40.127" y="12.849">C<tspan x="47.322">e</tspan> <tspan x="51.75">n</tspan> <tspan x="57.008">t</tspan> <tspan x="60.883">i</tspan> <tspan x="63.65">l</tspan> <tspan x="66.417">e</tspan></text><path d="M103.871-15.5v-113.386h56.696V-15.5z" fill="none" stroke="#000" stroke-miterlimit="10.037" stroke-width=".8"/><text class="f0" transform="translate(59.033 -16.17)" x="18.832" y="12.849">2<tspan x="23.813">5</tspan></text><text class="f1" transform="translate(59.033 -16.17)" x="28.794" y="9.233">t<tspan x="31.908">h</tspan></text><text class="f0" transform="translate(59.033 -16.17)" x="40.127" y="12.849">C<tspan x="47.322">e</tspan> <tspan x="51.75">n</tspan> <tspan x="57.008">t</tspan> <tspan x="60.883">i</tspan> <tspan x="63.65">l</tspan> <tspan x="66.417">e</tspan></text><path d="M160.567-15.5v-113.386h113.386V-15.5z" fill="none" stroke="#000" stroke-miterlimit="10.037" stroke-width=".8"/><text class="f0" transform="translate(125.544 -145.454)" x="18.832" y="12.849">M<tspan x="27.964">e</tspan> <tspan x="32.392">d</tspan> <tspan x="37.927">i</tspan> <tspan x="40.694">a</tspan> <tspan x="45.676">n</tspan></text><text class="f0" transform="translate(229.114 -16.17)" x="18.832" y="12.849">7<tspan x="23.813">5</tspan></text><text class="f1" transform="translate(229.114 -16.17)" x="28.794" y="9.233">t<tspan x="31.908">h</tspan></text><text class="f0" transform="translate(229.114 -16.17)" x="40.127" y="12.849">C<tspan x="47.322">e</tspan> <tspan x="51.75">n</tspan> <tspan x="57.008">t</tspan> <tspan x="60.883">i</tspan> <tspan x="63.65">l</tspan> <tspan x="66.417">e</tspan></text><path d="M273.953-72.191h141.735M415.688-63.688v-17.007" fill="none" stroke="#000" stroke-miterlimit="10.037" stroke-width=".8"/><text class="f0" transform="translate(370.848 -64.359)" x="18.832" y="12.849">9<tspan x="23.813">0</tspan></text><text class="f1" transform="translate(370.848 -64.359)" x="28.794" y="9.233">t<tspan x="31.908">h</tspan></text><text class="f0" transform="translate(370.848 -64.359)" x="40.127" y="12.849">C<tspan x="47.322">e</tspan> <tspan x="51.75">n</tspan> <tspan x="57.008">t</tspan> <tspan x="60.883">i</tspan> <tspan x="63.65">l</tspan> <tspan x="66.417">e</tspan></text></g></svg>

<?xml version='1.0' encoding='UTF-8'?>
<!-- This file was generated by dvisvgm 2.1.3 -->
<svg height='136.203pt' version='1.1' viewBox='3.32033 -139.524 438.373 136.203' width='438.373pt' xmlns='http://www.w3.org/2000/svg' xmlns:xlink='http://www.w3.org/1999/xlink'>
<defs>
<font horiz-adv-x='0' id='cmr7'>
<font-face ascent='750' descent='250' font-family='cmr7' units-per-em='1000'/>
<glyph d='M515 303C515 390 472 441 365 441C276 441 227 388 205 350H204V694L54 683V647C121 647 129 640 129 591V79C129 36 119 36 54 36V0C56 0 126 4 168 4C205 4 274 1 283 0V36C218 36 208 36 208 79V259C208 364 291 413 357 413C427 413 436 358 436 307V79C436 36 426 36 361 36V0C363 0 433 4 475 4C512 4 581 1 590 0V36C525 36 515 36 515 79V303Z' glyph-name='h' horiz-adv-x='630' unicode='h' vert-adv-y='630'/>
<glyph d='M201 395H357V431H201V615H167C166 525 125 426 29 423V395H122V125C122 13 206 -10 262 -10C329 -10 375 47 375 126V181H341V127C341 59 309 22 270 22C201 22 201 106 201 124V395Z' glyph-name='t' horiz-adv-x='446' unicode='t' vert-adv-y='446'/>
</font>
<font horiz-adv-x='0' id='cmr10'>
<font-face ascent='750' descent='250' font-family='cmr10' units-per-em='1000'/>
<glyph d='M460 320C460 400 455 480 420 554C374 650 292 666 250 666C190 666 117 640 76 547C44 478 39 400 39 320C39 245 43 155 84 79C127 -2 200 -22 249 -22C303 -22 379 -1 423 94C455 163 460 241 460 320ZM249 0C210 0 151 25 133 121C122 181 122 273 122 332C122 396 122 462 130 516C149 635 224 644 249 644C282 644 348 626 367 527C377 471 377 395 377 332C377 257 377 189 366 125C351 30 294 0 249 0Z' glyph-name='zero' horiz-adv-x='500' unicode='0' vert-adv-y='500'/>
<glyph d='M294 640C294 664 294 666 271 666C209 602 121 602 89 602V571C109 571 168 571 220 597V79C220 43 217 31 127 31H95V0C130 3 217 3 257 3S384 3 419 0V31H387C297 31 294 42 294 79V640Z' glyph-name='one' horiz-adv-x='500' unicode='1' vert-adv-y='500'/>
<glyph d='M127 77L233 180C389 318 449 372 449 472C449 586 359 666 237 666C124 666 50 574 50 485C50 429 100 429 103 429C120 429 155 441 155 482C155 508 137 534 102 534C94 534 92 534 89 533C112 598 166 635 224 635C315 635 358 554 358 472C358 392 308 313 253 251L61 37C50 26 50 24 50 0H421L449 174H424C419 144 412 100 402 85C395 77 329 77 307 77H127Z' glyph-name='two' horiz-adv-x='500' unicode='2' vert-adv-y='500'/>
<glyph d='M449 201C449 320 367 420 259 420C211 420 168 404 132 369V564C152 558 185 551 217 551C340 551 410 642 410 655C410 661 407 666 400 666C399 666 397 666 392 663C372 654 323 634 256 634C216 634 170 641 123 662C115 665 113 665 111 665C101 665 101 657 101 641V345C101 327 101 319 115 319C122 319 124 322 128 328C139 344 176 398 257 398C309 398 334 352 342 334C358 297 360 258 360 208C360 173 360 113 336 71C312 32 275 6 229 6C156 6 99 59 82 118C85 117 88 116 99 116C132 116 149 141 149 165S132 214 99 214C85 214 50 207 50 161C50 75 119 -22 231 -22C347 -22 449 74 449 201Z' glyph-name='five' horiz-adv-x='500' unicode='5' vert-adv-y='500'/>
<glyph d='M476 609C485 621 485 623 485 644H242C120 644 118 657 114 676H89L56 470H81C84 486 93 549 106 561C113 567 191 567 204 567H411C400 551 321 442 299 409C209 274 176 135 176 33C176 23 176 -22 222 -22S268 23 268 33V84C268 139 271 194 279 248C283 271 297 357 341 419L476 609Z' glyph-name='seven' horiz-adv-x='500' unicode='7' vert-adv-y='500'/>
<glyph d='M367 318V286C367 52 263 6 205 6C188 6 134 8 107 42C151 42 159 71 159 88C159 119 135 134 113 134C97 134 67 125 67 86C67 19 121 -22 206 -22C335 -22 457 114 457 329C457 598 342 666 253 666C198 666 149 648 106 603C65 558 42 516 42 441C42 316 130 218 242 218C303 218 344 260 367 318ZM243 241C227 241 181 241 150 304C132 341 132 391 132 440C132 494 132 541 153 578C180 628 218 641 253 641C299 641 332 607 349 562C361 530 365 467 365 421C365 338 331 241 243 241Z' glyph-name='nine' horiz-adv-x='500' unicode='9' vert-adv-y='500'/>
<glyph d='M56 342C56 135 218 -22 404 -22C567 -22 665 117 665 233C665 243 665 250 652 250C641 250 641 244 640 234C632 91 525 9 416 9C355 9 159 43 159 341C159 640 354 674 415 674C524 674 613 583 633 437C635 423 635 420 649 420C665 420 665 423 665 444V681C665 698 665 705 654 705C650 705 646 705 638 693L588 619C551 655 500 705 404 705C217 705 56 546 56 342Z' glyph-name='C' horiz-adv-x='722' unicode='C' vert-adv-y='722'/>
<glyph d='M241 661C232 683 229 683 206 683H37V652H61C138 652 140 641 140 605V105C140 78 140 31 37 31V0C72 1 121 3 154 3S236 1 271 0V31C168 31 168 78 168 105V644H169L410 22C415 9 420 0 430 0C441 0 444 8 448 19L694 652H695V78C695 42 693 31 616 31H592V0C629 3 697 3 736 3S842 3 879 0V31H855C778 31 776 42 776 78V605C776 641 778 652 855 652H879V683H710C684 683 684 682 677 664L458 101L241 661Z' glyph-name='M' horiz-adv-x='916' unicode='M' vert-adv-y='916'/>
<glyph d='M721 339C721 543 570 705 388 705C209 705 56 545 56 339C56 134 210 -22 388 -22C570 -22 721 137 721 339ZM389 4C293 4 159 92 159 353C159 612 305 680 388 680C475 680 618 609 618 353C618 88 481 4 389 4Z' glyph-name='O' horiz-adv-x='777' unicode='O' vert-adv-y='777'/>
<glyph d='M333 76C337 36 364 -6 411 -6C432 -6 493 8 493 89V145H468V89C468 31 443 25 432 25C399 25 395 70 395 75V275C395 317 395 356 359 393C320 432 270 448 222 448C140 448 71 401 71 335C71 305 91 288 117 288C145 288 163 308 163 334C163 346 158 379 112 380C139 415 188 426 220 426C269 426 326 387 326 298V261C275 258 205 255 142 225C67 191 42 139 42 95C42 14 139 -11 202 -11C268 -11 314 29 333 76ZM326 240V140C326 45 254 11 209 11C160 11 119 46 119 96C119 151 161 234 326 240Z' glyph-name='a' horiz-adv-x='500' unicode='a' vert-adv-y='500'/>
<glyph d='M380 55V-11L527 0V31C457 31 449 38 449 87V694L305 683V652C375 652 383 645 383 596V380C354 416 311 442 257 442C139 442 34 344 34 215C34 88 132 -11 246 -11C310 -11 355 23 380 55ZM380 323V118C380 100 380 98 369 81C339 33 294 11 251 11C206 11 170 37 146 75C120 116 117 173 117 214C117 251 119 311 148 356C169 387 207 420 261 420C296 420 338 405 369 360C380 343 380 341 380 323Z' glyph-name='d' horiz-adv-x='555' unicode='d' vert-adv-y='555'/>
<glyph d='M112 252C118 401 202 426 236 426C339 426 349 291 349 252H112ZM111 231H390C412 231 415 231 415 252C415 351 361 448 236 448C120 448 28 345 28 220C28 86 133 -11 248 -11C370 -11 415 100 415 119C415 129 407 131 402 131C393 131 391 125 389 117C354 14 264 14 254 14C204 14 164 44 141 81C111 129 111 195 111 231Z' glyph-name='e' horiz-adv-x='444' unicode='e' vert-adv-y='444'/>
<glyph d='M177 442L37 431V400C102 400 111 394 111 345V76C111 31 100 31 33 31V0C65 1 119 3 143 3C178 3 213 1 247 0V31C181 31 177 36 177 75V442ZM181 616C181 648 156 669 128 669C97 669 75 642 75 616C75 589 97 563 128 563C156 563 181 584 181 616Z' glyph-name='i' horiz-adv-x='277' unicode='i' vert-adv-y='277'/>
<glyph d='M177 694L33 683V652C103 652 111 645 111 596V76C111 31 100 31 33 31V0C66 1 119 3 144 3S218 1 255 0V31C188 31 177 31 177 76V694Z' glyph-name='l' horiz-adv-x='277' unicode='l' vert-adv-y='277'/>
<glyph d='M110 344V76C110 31 99 31 32 31V0C67 1 118 3 145 3C171 3 223 1 257 0V31C190 31 179 31 179 76V260C179 364 250 420 314 420C377 420 388 366 388 309V76C388 31 377 31 310 31V0C345 1 396 3 423 3C449 3 501 1 535 0V31C483 31 458 31 457 61V252C457 338 457 369 426 405C412 422 379 442 321 442C248 442 201 399 173 337V442L32 431V400C102 400 110 393 110 344Z' glyph-name='n' horiz-adv-x='555' unicode='n' vert-adv-y='555'/>
<glyph d='M167 332V442L28 431V400C98 400 106 393 106 344V76C106 31 95 31 28 31V0C67 1 114 3 142 3C182 3 229 3 269 0V31H248C174 31 172 42 172 78V232C172 331 214 420 290 420C297 420 299 420 301 419C298 418 278 406 278 380C278 352 299 337 321 337C339 337 364 349 364 381S333 442 290 442C217 442 181 375 167 332Z' glyph-name='r' horiz-adv-x='391' unicode='r' vert-adv-y='391'/>
<glyph d='M173 400H316V431H173V615H148C147 533 117 426 19 422V400H104V124C104 1 197 -11 233 -11C304 -11 332 60 332 124V181H307V126C307 52 277 14 240 14C173 14 173 105 173 122V400Z' glyph-name='t' horiz-adv-x='388' unicode='t' vert-adv-y='388'/>
<glyph d='M391 79V-11L535 0V31C465 31 457 38 457 87V442L310 431V400C380 400 388 393 388 344V166C388 79 340 11 267 11C183 11 179 58 179 110V442L32 431V400C110 400 110 397 110 308V158C110 80 110 -11 262 -11C318 -11 362 17 391 79Z' glyph-name='u' horiz-adv-x='555' unicode='u' vert-adv-y='555'/>
</font>
</defs>
<style type='text/css'>
<![CDATA[
text.f0 {font-family:cmr10;font-size:9.96264px}
text.f1 {font-family:cmr7;font-size:6.97385px}
]]>
</style>
<g id='page1'>
<path d='M21.3242 -72.1914C21.3242 -73.5664 20.207 -74.6836 18.832 -74.6836C17.457 -74.6836 16.3398 -73.5664 16.3398 -72.1914S17.457 -69.6992 18.832 -69.6992C20.207 -69.6992 21.3242 -70.8164 21.3242 -72.1914Z'/>
<text class='f0' transform='matrix(1 0 0 1 -15.5115 -95.7545)' x='18.8318' y='12.8486'>O<tspan x='26.5806'>u</tspan>
<tspan x='32.1154'>t</tspan>
<tspan x='35.9898'>l</tspan>
<tspan x='38.7572'>i</tspan>
<tspan x='41.5246'>e</tspan>
<tspan x='45.9524'>r</tspan>
</text>
<path d='M47.1797 -72.1914H103.871' fill='none' stroke='#000000' stroke-miterlimit='10.0375' stroke-width='0.799999'/>
<path d='M47.1797 -63.6875V-80.6953' fill='none' stroke='#000000' stroke-miterlimit='10.0375' stroke-width='0.799999'/>
<text class='f0' transform='matrix(1 0 0 1 2.3398 -64.3588)' x='18.8318' y='12.8486'>1<tspan x='23.8132'>0</tspan>
</text>
<text class='f1' transform='matrix(1 0 0 1 2.3398 -64.3588)' x='28.7945' y='9.23323'>t<tspan x='31.9079'>h</tspan>
</text>
<text class='f0' transform='matrix(1 0 0 1 2.3398 -64.3588)' x='40.127' y='12.8486'>C<tspan x='47.3223'>e</tspan>
<tspan x='51.7502'>n</tspan>
<tspan x='57.0082'>t</tspan>
<tspan x='60.8826'>i</tspan>
<tspan x='63.65'>l</tspan>
<tspan x='66.4174'>e</tspan>
</text>
<path d='M103.871 -15.5V-128.886H160.567V-15.5Z' fill='none' stroke='#000000' stroke-miterlimit='10.0375' stroke-width='0.799999'/>
<text class='f0' transform='matrix(1 0 0 1 59.0334 -16.1693)' x='18.8318' y='12.8486'>2<tspan x='23.8132'>5</tspan>
</text>
<text class='f1' transform='matrix(1 0 0 1 59.0334 -16.1693)' x='28.7945' y='9.23323'>t<tspan x='31.9079'>h</tspan>
</text>
<text class='f0' transform='matrix(1 0 0 1 59.0334 -16.1693)' x='40.127' y='12.8486'>C<tspan x='47.3223'>e</tspan>
<tspan x='51.7502'>n</tspan>
<tspan x='57.0082'>t</tspan>
<tspan x='60.8826'>i</tspan>
<tspan x='63.65'>l</tspan>
<tspan x='66.4174'>e</tspan>
</text>
<path d='M160.567 -15.5V-128.886H273.953V-15.5Z' fill='none' stroke='#000000' stroke-miterlimit='10.0375' stroke-width='0.799999'/>
<text class='f0' transform='matrix(1 0 0 1 125.544 -145.454)' x='18.8318' y='12.8486'>M<tspan x='27.9643'>e</tspan>
<tspan x='32.3921'>d</tspan>
<tspan x='37.9269'>i</tspan>
<tspan x='40.6944'>a</tspan>
<tspan x='45.6757'>n</tspan>
</text>
<text class='f0' transform='matrix(1 0 0 1 229.114 -16.1693)' x='18.8318' y='12.8486'>7<tspan x='23.8132'>5</tspan>
</text>
<text class='f1' transform='matrix(1 0 0 1 229.114 -16.1693)' x='28.7945' y='9.23323'>t<tspan x='31.9079'>h</tspan>
</text>
<text class='f0' transform='matrix(1 0 0 1 229.114 -16.1693)' x='40.127' y='12.8486'>C<tspan x='47.3223'>e</tspan>
<tspan x='51.7502'>n</tspan>
<tspan x='57.0082'>t</tspan>
<tspan x='60.8826'>i</tspan>
<tspan x='63.65'>l</tspan>
<tspan x='66.4174'>e</tspan>
</text>
<path d='M273.953 -72.1914H415.688' fill='none' stroke='#000000' stroke-miterlimit='10.0375' stroke-width='0.799999'/>
<path d='M415.688 -63.6875V-80.6953' fill='none' stroke='#000000' stroke-miterlimit='10.0375' stroke-width='0.799999'/>
<text class='f0' transform='matrix(1 0 0 1 370.848 -64.3588)' x='18.8318' y='12.8486'>9<tspan x='23.8132'>0</tspan>
</text>
<text class='f1' transform='matrix(1 0 0 1 370.848 -64.3588)' x='28.7945' y='9.23323'>t<tspan x='31.9079'>h</tspan>
</text>
<text class='f0' transform='matrix(1 0 0 1 370.848 -64.3588)' x='40.127' y='12.8486'>C<tspan x='47.3223'>e</tspan>
<tspan x='51.7502'>n</tspan>
<tspan x='57.0082'>t</tspan>
<tspan x='60.8826'>i</tspan>
<tspan x='63.65'>l</tspan>
<tspan x='66.4174'>e</tspan>
</text>
</g>
</svg>
